icons/numix/32x32/mimetypes/wps-office-dpt.svg

<?xml version="1.0" encoding="UTF-8" standalone="no"?>
<svg
   xmlns:dc="http://purl.org/dc/elements/1.1/"
   xmlns:cc="http://creativecommons.org/ns#"
   xmlns:rdf="http://www.w3.org/1999/02/22-rdf-syntax-ns#"
   xmlns:svg="http://www.w3.org/2000/svg"
   xmlns="http://www.w3.org/2000/svg"
   xmlns:sodipodi="http://sodipodi.sourceforge.net/DTD/sodipodi-0.dtd"
   xmlns:inkscape="http://www.inkscape.org/namespaces/inkscape"
   width="32"
   height="32"
   viewBox="0 0 32 32"
   id="svg3011"
   version="1.1"
   inkscape:version="0.48.5 r10040"
   sodipodi:docname="wps-office-dpt.svg">
  <metadata
     id="metadata3039">
    <rdf:RDF>
      <cc:Work
         rdf:about="">
        <dc:format>image/svg+xml</dc:format>
        <dc:type
           rdf:resource="http://purl.org/dc/dcmitype/StillImage" />
      </cc:Work>
    </rdf:RDF>
  </metadata>
  <defs
     id="defs3037" />
  <sodipodi:namedview
     pagecolor="#ffffff"
     bordercolor="#666666"
     borderopacity="1"
     objecttolerance="10"
     gridtolerance="10"
     guidetolerance="10"
     inkscape:pageopacity="0"
     inkscape:pageshadow="2"
     inkscape:window-width="1280"
     inkscape:window-height="970"
     id="namedview3035"
     showgrid="true"
     inkscape:zoom="8"
     inkscape:cx="19.311658"
     inkscape:cy="28.377087"
     inkscape:window-x="0"
     inkscape:window-y="0"
     inkscape:window-maximized="1"
     inkscape:current-layer="svg3011">
    <inkscape:grid
       type="xygrid"
       id="grid3110" />
  </sodipodi:namedview>
  <path
     inkscape:connector-curvature="0"
     style="fill:#d14626;fill-opacity:1"
     d="M 5.34375,-1e-7 C 4.656276,1.49e-5 4,0.6890069 4,1.4062499 L 4,30.59375 C 4,31.270239 4.695336,32 5.34375,32 l 21.3125,0 C 27.304664,32 28,31.270239 28,30.59375 L 28,9 28,1.3749999 C 28,0.7020489 27.297951,-1.0000001e-7 26.625,-1.0000001e-7 l -7.625,0 -13.65625,0 z"
     id="path4-1" />
  <path
     style="fill:#000000;fill-opacity:0.19599998"
     d="m 4,24 0,6.667969 C 4,31.316407 4.6875,32 5.332031,32 l 21.335938,0 C 27.3125,32 28,31.316407 28,30.667969 L 28,24 z"
     id="path3025"
     inkscape:connector-curvature="0" />
  <path
     style="fill:#ffffff"
     inkscape:connector-curvature="0"
     id="path3009"
     d="m 8,11 5,0 0,3 -5,0 z" />
  <path
     style="fill:#ffffff"
     inkscape:connector-curvature="0"
     id="path3011"
     d="m 8,16 5,0 0,3 -5,0 z" />
  <path
     style="fill:#ffffff"
     inkscape:connector-curvature="0"
     id="path3015"
     d="M 20,9.992539 20,14 24,14 C 24,11.785644 22.208522,9.992539 20,9.992539 z" />
  <g
     style="fill:#ffffff"
     id="g3027"
     transform="matrix(1.0497949,0,0,1.0497949,-0.79671876,-0.42744168)">
    <path
       d="m 10.488281,29.089844 c 0.03125,0.0078 0.06641,0.01172 0.101563,0.01172 0.03906,0 0.07422,0 0.105468,0 0.261719,0 0.480469,-0.04687 0.65625,-0.136718 0.179688,-0.08984 0.324219,-0.210938 0.429688,-0.371094 0.113281,-0.15625 0.191406,-0.339844 0.234375,-0.554688 0.05078,-0.21875 0.07813,-0.457031 0.07813,-0.714843 0,-0.222657 -0.01953,-0.441407 -0.05859,-0.65625 C 12,26.457031 11.933594,26.269531 11.839844,26.105469 11.746094,25.941406 11.617188,25.8125 11.453125,25.71875 c -0.160156,-0.101562 -0.371094,-0.152344 -0.628906,-0.152344 -0.05078,0 -0.105469,0.0039 -0.167969,0.0078 -0.0625,0 -0.117188,0.0078 -0.167969,0.01953 l 0,3.496094 m 2.777344,-1.765625 c 0,0.484375 -0.07031,0.894531 -0.207031,1.238281 -0.132813,0.335938 -0.316406,0.609375 -0.554688,0.824219 -0.238281,0.210937 -0.519531,0.371093 -0.851562,0.46875 C 11.324219,29.953125 10.964844,30 10.570312,30 10.367188,30 10.164062,29.988281 9.960938,29.964844 9.769531,29.949219 9.558594,29.917969 9.332031,29.875 l 0,-5.082031 c 0.265625,-0.05078 0.511719,-0.08594 0.742188,-0.101563 0.230469,-0.01563 0.449219,-0.02344 0.648437,-0.02344 0.382813,0 0.726563,0.05078 1.039063,0.148437 0.320312,0.101563 0.589843,0.261719 0.808593,0.480469 0.21875,0.214844 0.386719,0.488281 0.507813,0.824219 0.125,0.332031 0.1875,0.734375 0.1875,1.203125"
       id="path3029"
       inkscape:connector-curvature="0" />
    <path
       d="m 15.621094,24.667969 c 0.738281,0 1.308594,0.136719 1.714844,0.410156 0.40625,0.269531 0.609374,0.714844 0.609374,1.328125 0,0.625 -0.203124,1.074219 -0.617187,1.355469 -0.40625,0.273437 -0.984375,0.414062 -1.734375,0.414062 l -0.414062,0 0,1.757813 -1.15625,0 0,-5.140625 c 0.113281,-0.02344 0.238281,-0.04297 0.375,-0.05859 0.144531,-0.01563 0.289062,-0.02734 0.433593,-0.03516 0.144531,-0.01172 0.285157,-0.01953 0.421875,-0.02344 0.136719,-0.0078 0.257813,-0.0078 0.367188,-0.0078 M 15.75,25.566406 c -0.06641,0 -0.164062,0.0039 -0.289062,0.0078 -0.121094,0 -0.214844,0.0078 -0.28125,0.01953 l 0,1.679688 0.46875,0 c 0.367187,0 0.648437,-0.0625 0.835937,-0.191407 0.1875,-0.136719 0.28125,-0.363281 0.28125,-0.683593 0,-0.300782 -0.09375,-0.515626 -0.28125,-0.636719 C 16.300781,25.632812 16.058594,25.566406 15.75,25.566406"
       id="path3031"
       inkscape:connector-curvature="0" />
    <path
       d="m 22.667969,24.726562 0,0.855469 -1.53125,0 0,4.351563 -1.164063,0 0,-4.351563 -1.527344,0 0,-0.855469 4.222657,0"
       id="path3033"
       inkscape:connector-curvature="0" />
  </g>
  <path
     style="fill:#ffffff"
     inkscape:connector-curvature="0"
     id="path3017"
     d="M 19.001814,11 C 16.792291,11 15,12.789768 15,15 c 0,2.210233 1.792291,4 4.001814,4 C 21.211338,19 23,17.210233 23,15 l -3.998186,0 z" />
</svg>

<svg width="32" xmlns="http://www.w3.org/2000/svg" height="32" viewBox="0 0 32 32" xmlns:xlink="http://www.w3.org/1999/xlink">
<path style="fill:#d14626" d="M 5.332031 0.667969 C 4.648438 0.667969 4 1.3125 4 2 L 4 30 C 4 30.648438 4.6875 31.332031 5.332031 31.332031 L 26.667969 31.332031 C 27.3125 31.332031 28 30.648438 28 30 L 28 2 C 28 1.3125 27.351562 0.667969 26.667969 0.667969 Z "/>
<g style="fill:#fff">
<path d="M 8 10.667969 L 12.667969 10.667969 L 12.667969 14 L 8 14 Z "/>
<path d="M 8 16 L 12.667969 16 L 12.667969 19.332031 L 8 19.332031 Z "/>
<path d="M 19.691406 10.667969 L 19.691406 14.867188 L 24 14.867188 C 24 12.546875 22.070312 10.667969 19.691406 10.667969 Z "/>
<path d="M 19.078125 11.265625 C 16.699219 11.265625 14.769531 13.148438 14.769531 15.464844 C 14.769531 17.785156 16.699219 19.667969 19.078125 19.667969 C 21.457031 19.667969 23.382812 17.785156 23.382812 15.464844 L 19.078125 15.464844 Z "/>
</g>
<path style="fill:#000;fill-opacity:.196" d="M 4 23.332031 L 4 30 C 4 30.648438 4.6875 31.332031 5.332031 31.332031 L 26.667969 31.332031 C 27.3125 31.332031 28 30.648438 28 30 L 28 23.332031 Z "/>
<g style="fill:#fff">
<path d="M 10.488281 29.089844 C 10.519531 29.097656 10.554688 29.101562 10.589844 29.101562 C 10.628906 29.101562 10.664062 29.101562 10.695312 29.101562 C 10.957031 29.101562 11.175781 29.054688 11.351562 28.964844 C 11.53125 28.875 11.675781 28.753906 11.78125 28.59375 C 11.894531 28.4375 11.972656 28.253906 12.015625 28.039062 C 12.066406 27.820312 12.09375 27.582031 12.09375 27.324219 C 12.09375 27.101562 12.074219 26.882812 12.035156 26.667969 C 12 26.457031 11.933594 26.269531 11.839844 26.105469 C 11.746094 25.941406 11.617188 25.8125 11.453125 25.71875 C 11.292969 25.617188 11.082031 25.566406 10.824219 25.566406 C 10.773438 25.566406 10.71875 25.570312 10.65625 25.574219 C 10.59375 25.574219 10.539062 25.582031 10.488281 25.59375 L 10.488281 29.089844 M 13.265625 27.324219 C 13.265625 27.808594 13.195312 28.21875 13.058594 28.5625 C 12.925781 28.898438 12.742188 29.171875 12.503906 29.386719 C 12.265625 29.597656 11.984375 29.757812 11.652344 29.855469 C 11.324219 29.953125 10.964844 30 10.570312 30 C 10.367188 30 10.164062 29.988281 9.960938 29.964844 C 9.769531 29.949219 9.558594 29.917969 9.332031 29.875 L 9.332031 24.792969 C 9.597656 24.742188 9.84375 24.707031 10.074219 24.691406 C 10.304688 24.675781 10.523438 24.667969 10.722656 24.667969 C 11.105469 24.667969 11.449219 24.71875 11.761719 24.816406 C 12.082031 24.917969 12.351562 25.078125 12.570312 25.296875 C 12.789062 25.511719 12.957031 25.785156 13.078125 26.121094 C 13.203125 26.453125 13.265625 26.855469 13.265625 27.324219 "/>
<path d="M 15.621094 24.667969 C 16.359375 24.667969 16.929688 24.804688 17.335938 25.078125 C 17.742188 25.347656 17.945312 25.792969 17.945312 26.40625 C 17.945312 27.03125 17.742188 27.480469 17.328125 27.761719 C 16.921875 28.035156 16.34375 28.175781 15.59375 28.175781 L 15.179688 28.175781 L 15.179688 29.933594 L 14.023438 29.933594 L 14.023438 24.792969 C 14.136719 24.769531 14.261719 24.75 14.398438 24.734375 C 14.542969 24.71875 14.6875 24.707031 14.832031 24.699219 C 14.976562 24.6875 15.117188 24.679688 15.253906 24.675781 C 15.390625 24.667969 15.511719 24.667969 15.621094 24.667969 M 15.75 25.566406 C 15.683594 25.566406 15.585938 25.570312 15.460938 25.574219 C 15.339844 25.574219 15.246094 25.582031 15.179688 25.59375 L 15.179688 27.273438 L 15.648438 27.273438 C 16.015625 27.273438 16.296875 27.210938 16.484375 27.082031 C 16.671875 26.945312 16.765625 26.71875 16.765625 26.398438 C 16.765625 26.097656 16.671875 25.882812 16.484375 25.761719 C 16.300781 25.632812 16.058594 25.566406 15.75 25.566406 "/>
<path d="M 22.667969 24.726562 L 22.667969 25.582031 L 21.136719 25.582031 L 21.136719 29.933594 L 19.972656 29.933594 L 19.972656 25.582031 L 18.445312 25.582031 L 18.445312 24.726562 L 22.667969 24.726562 "/>
</g>
</svg>
